priv/site/_includes/me.svg

<svg fill="none" height="447" viewBox="0 0 450 447" width="450" xmlns="http://www.w3.org/2000/svg" xmlns:xlink="http://www.w3.org/1999/xlink"><radialGradient id="a" cx="0" cy="0" gradientTransform="matrix(-3.45660663 279.242607 -662.05927912 -8.19530558 230.192 160.49)" gradientUnits="userSpaceOnUse" r="1"><stop offset=".317831" stop-color="#2b014b"/><stop offset=".545967" stop-color="#490082"/></radialGradient><radialGradient id="b" cx="0" cy="0" gradientTransform="matrix(34.5172736 18.88121529 -15.00811841 27.43675773 171.794 162.216)" gradientUnits="userSpaceOnUse" r="1"><stop offset="0" stop-color="#48027e"/><stop offset="1" stop-color="#210139"/></radialGradient><radialGradient id="c" cx="0" cy="0" gradientTransform="matrix(-23.8965442 -38.05745698 37.47267945 -23.52935829 218.702 143.924)" gradientUnits="userSpaceOnUse" r="1"><stop offset="0" stop-color="#1d0033"/><stop offset="1" stop-color="#3e006f"/></radialGradient><mask id="d" height="447" maskUnits="userSpaceOnUse" width="450" x="0" y="0"><path d="m0 0h450v447h-450z" fill="#540e8a"/></mask><g mask="url(#d)"><path d="m0 0h450v447h-450z" fill="#540e8a"/><path clip-rule="evenodd" d="m194.807 184.577c0-5.395 1.619-9.525 4.499-12.428-2.951-17.094-1.96-35.348 9.952-47.991 16.357-17.361 31.618-22.065 52.186-20.007 1.169-.036 2.362-.055 3.579-.055 3.456 0 15.221 1.874 11.799 2.361-.163.023-.325.046-.488.07.357.074.715.149 1.074.225 9.441-3.54 20.881-6.404 30.687-1.476 12.807 6.437 6.196 30.682 6.196 30.682s-.296-.104-.85-.286c10.614 20.088 6.878 50.054-4.503 82.21 2.303 10.065-4.528 23.351-13.206 32.324 25.321 3.814 48.463 9.337 58.528 16.689 4.756 3.473 8.838 9.885 12.344 18.343h-254.163c3.784-6.497 8.244-11.741 13.481-15.393 12.673-8.838 26.29-12.161 43.353-16.324 8.608-2.1 18.093-4.414 28.777-7.759 3.675-7.969 5.995-9.386 12.93-12.345 1.456-5.845 2.799-11.432 3.962-16.373-1.196-2.3-3.578-7.073-6.19-13.395-8.575-2.165-13.947-9.246-13.947-19.072z" fill="#460c73" fill-rule="evenodd"/><path d="m-32.4766 265.42h492.369v207.693h-492.369z" fill="url(#a)" transform="matrix(.99978498 .02073652 -.02073652 .99978498 5.496903 .730523)"/><path d="m194.524 183.161 53.696 6.49-11.802 104.732s-78.076 3.499-66.093-23.012c9.734-21.536 24.199-88.21 24.199-88.21z" fill="#ffceae"/><path d="m181.825 231.839c-21.832 6.834-61.62 10.252-80.686 23.549-54.571 38.057-24.7818 248.996-24.7818 248.996l286.7448-52.808s.302-174.356-33.625-199.138c-12.463-9.104-60.032-13.224-85.403-17.944-15.341 12.981-25.077 43.958-30.387 56.054-7.671-14.751-12.096-46.613-31.862-58.709z" fill="#104594"/><path d="m246.14 233.905c-12.096 1.18-32.452 56.939-32.452 56.939s13.349-25.339 25.076-39.238c7.966-9.441 17.362-18.675 7.376-17.701z" fill="#0c3676"/><path d="m196.288 242.755c8.898 22.966 17.405 47.498 17.405 47.498s-22.776-45.186-31.863-54.578c-7.136-7.376 5.313-16.522 14.458 7.08z" fill="#0c3676"/><path d="m193.195 104.544c15.926-18.2907 62.237-17.4056 86.724 5.016 24.487 22.421 16.226 68.739-4.72 115.942-20.947 47.203-82.011-41.892-82.011-41.892s-28.895-45.874.007-79.066z" fill="#ffceae" fill-opacity=".99"/><path d="m194.213 156.61-3.241 47.202s-35.402-63.724-6.495-94.405c20.316-21.5645 38.943-23.6018 68.15-17.4064 9.44-3.5403 20.88-6.4039 30.686-1.4756 12.808 6.437 6.196 30.682 6.196 30.682s-45.435-16.016-64.019 1.77c-4.425 26.847-11.21 31.272-11.21 31.272z" fill="#130121" stroke="#000"/><path d="m206.016 171.839c0 11.895-4.332 17.754-16.226 17.754-11.895 0-19.767-7.872-19.767-19.766 0-11.895 7.872-17.642 19.767-17.642 11.894 0 16.226 7.76 16.226 19.654z" fill="url(#b)"/><path d="m240.24 89.3457c3.456 0 15.222 1.8736 11.8 2.3602-62.25 8.8511-58.119 61.3641-58.119 61.3641l-13.275 1.475s-12.687-65.1992 59.594-65.1993z" fill="url(#c)"/><path clip-rule="evenodd" d="m211.924 156.905c4.724 0 5.02 44.843 31.01 49.857 5.573-6.784 13.538-18.88 32.157-14.456 18.259 8.852 7.048 33.339-6.814 45.73-16.709 11.866-54.578-23.897-54.578-23.897s-12.694-13.571-1.775-57.234zm56.353 54.874c9.23 2.307 1.176 24.781 11.207 0 1.959-4.841.885-11.801-4.393-14.161-8.321-3.721-23.965 0-23.04 9.144 2.72 26.873 10.326 3.542 16.226 5.017z" fill="#2d0b01" fill-rule="evenodd"/><path d="m276.233 186.111c-3.836 0-4.721.59-6.491.885 0 0 3.084.19 5.016.59 1.642.341 4.13 1.181 4.13 1.181 1.349-.3-1.273-2.656-2.655-2.656z" fill="#e3ac88"/><path d="m111.912 313.264c-.304-3.211 1.383-32.136 1.473-28.912 1.27 45.728 3.836 57.234 3.836 57.234l-3.836 3.54s.591-10.03-1.473-31.862z" fill="#0c3676"/><path d="m356.943 435.311c-14.16-29.797-54.283-12.096-54.283-12.096l-19.348 3.85h-52.808l5.605 49.858s142.235 3.417 120.834-41.612z" fill="#dfab93"/><path d="m-33.832 333.685s275.253-28.027 289.414-18.881c14.161 9.145 30.682 148.099 23.306 157.54-7.375 9.44-282.33306 17.996-282.33306 17.996z" fill="#270143"/><path d="m133.95 397.823 20.811-2.194 3.109 29.489c-3.145 1.411-6.348 2.543-9.609 3.398-3.26.855-6.997 1.505-11.21 1.949-6.235.658-11.617-.024-16.146-2.046-4.536-2.077-8.17-5.3-10.902-9.669-2.683-4.431-4.358-9.821-5.028-16.168-.663-6.291-.002-11.87 1.984-16.736 1.986-4.867 5.148-8.807 9.488-11.82 4.39-3.075 9.87-4.96 16.442-5.653 3.37-.355 6.577-.381 9.619-.077 3.098.298 5.998.873 8.701 1.724l-2.172 6.874c-2.235-.73-4.736-1.29-7.504-1.68-2.711-.395-5.499-.442-8.363-.14-7.19.758-12.579 3.513-16.167 8.264-3.532 4.746-4.901 10.882-4.108 18.409.504 4.774 1.709 8.935 3.617 12.483 1.958 3.485 4.703 6.092 8.236 7.821 3.527 1.672 7.987 2.224 13.38 1.656 2.64-.279 4.872-.656 6.696-1.132 1.824-.477 3.473-.991 4.948-1.544l-1.883-17.862-13.228 1.394z" fill="#fff"/><path d="m294.528 299.399c-.502-3.186 1.68-19.156 1.769-15.931.796 28.678-.515 55.325 0 77.295.83 35.438 6.786 61.364 6.786 61.364l-3.541-2.065s-4.462-29.531-5.015-59.299c-.434-23.401 2.212-47.34.001-61.364z" fill="#0c3676"/></g></svg>

<svg class="w-full h-full" width="450" height="447" viewBox="0 0 450 447" fill="none" xmlns="http://www.w3.org/2000/svg">
<mask id="mask0" mask-type="alpha" maskUnits="userSpaceOnUse" x="0" y="0" width="450" height="447">
<rect width="450" height="447" fill="#540E8A"/>
</mask>
<g mask="url(#mask0)">
<rect width="450" height="447" fill="#540E8A"/>
<path fill-rule="evenodd" clip-rule="evenodd" d="M194.807 184.577C194.807 179.182 196.426 175.052 199.306 172.149C196.355 155.055 197.346 136.801 209.258 124.158C225.615 106.797 240.876 102.093 261.444 104.151C262.613 104.115 263.806 104.096 265.023 104.096C268.479 104.096 280.244 105.97 276.822 106.457C276.659 106.48 276.497 106.503 276.334 106.527C276.691 106.601 277.049 106.676 277.408 106.752C286.849 103.212 298.289 100.348 308.095 105.276C320.902 111.713 314.291 135.958 314.291 135.958C314.291 135.958 313.995 135.854 313.441 135.672C324.055 155.76 320.319 185.726 308.938 217.882C311.241 227.947 304.41 241.233 295.732 250.206C321.053 254.02 344.195 259.543 354.26 266.895C359.016 270.368 363.098 276.78 366.604 285.238H112.441C116.225 278.741 120.685 273.497 125.922 269.845C138.595 261.007 152.212 257.684 169.275 253.521C177.883 251.421 187.368 249.107 198.052 245.762C201.727 237.793 204.047 236.376 210.982 233.417C212.438 227.572 213.781 221.985 214.944 217.044C213.748 214.744 211.366 209.971 208.754 203.649C200.179 201.484 194.807 194.403 194.807 184.577Z" fill="#460C73"/>
<rect x="-32.4766" y="265.42" width="492.369" height="207.693" transform="rotate(1.1882 -32.4766 265.42)" fill="url(#paint0_radial)"/>
<path d="M194.524 183.161L248.22 189.651L236.418 294.383C236.418 294.383 158.342 297.882 170.325 271.371C180.059 249.835 194.524 183.161 194.524 183.161Z" fill="#FFCEAE"/>
<path d="M181.825 231.839C159.993 238.673 120.205 242.091 101.139 255.388C46.568 293.445 76.3572 504.384 76.3572 504.384L363.102 451.576C363.102 451.576 363.404 277.22 329.477 252.438C317.014 243.334 269.445 239.214 244.074 234.494C228.733 247.475 218.997 278.452 213.687 290.548C206.016 275.797 201.591 243.935 181.825 231.839Z" fill="#104594"/>
<path d="M246.14 233.905C234.044 235.085 213.688 290.844 213.688 290.844C213.688 290.844 227.037 265.505 238.764 251.606C246.73 242.165 256.126 232.931 246.14 233.905Z" fill="#0C3676"/>
<path d="M196.288 242.755C205.186 265.721 213.693 290.253 213.693 290.253C213.693 290.253 190.917 245.067 181.83 235.675C174.694 228.299 187.143 219.153 196.288 242.755Z" fill="#0C3676"/>
<path d="M193.195 104.544C209.121 86.2533 255.432 87.1384 279.919 109.56C304.406 131.981 296.145 178.299 275.199 225.502C254.252 272.705 193.188 183.61 193.188 183.61C193.188 183.61 164.293 137.736 193.195 104.544Z" fill="#FFCEAE" fill-opacity="0.99"/>
<path d="M194.213 156.61L190.972 203.812C190.972 203.812 155.57 140.088 184.477 109.407C204.793 87.8425 223.42 85.8052 252.627 92.0006C262.067 88.4603 273.507 85.5967 283.313 90.525C296.121 96.962 289.509 121.207 289.509 121.207C289.509 121.207 244.074 105.191 225.49 122.977C221.065 149.824 214.28 154.249 214.28 154.249L194.213 156.61Z" fill="#130121" stroke="black"/>
<path d="M206.016 171.839C206.016 183.734 201.684 189.593 189.79 189.593C177.895 189.593 170.023 181.721 170.023 169.827C170.023 157.932 177.895 152.185 189.79 152.185C201.684 152.185 206.016 159.945 206.016 171.839Z" fill="url(#paint1_radial)"/>
<path d="M240.24 89.3457C243.696 89.3457 255.462 91.2193 252.04 91.7059C189.79 100.557 193.921 153.07 193.921 153.07L180.646 154.545C180.646 154.545 167.959 89.3458 240.24 89.3457Z" fill="url(#paint2_radial)"/>
<path fill-rule="evenodd" clip-rule="evenodd" d="M211.924 156.905C216.648 156.905 216.944 201.748 242.934 206.762C248.507 199.978 256.472 187.882 275.091 192.306C293.35 201.158 282.139 225.645 268.277 238.036C251.568 249.902 213.699 214.139 213.699 214.139C213.699 214.139 201.005 200.568 211.924 156.905ZM268.277 211.779C277.507 214.086 269.453 236.56 279.484 211.779C281.443 206.938 280.369 199.978 275.091 197.618C266.77 193.897 251.126 197.618 252.051 206.762C254.771 233.635 262.377 210.304 268.277 211.779Z" fill="#2D0B01"/>
<path d="M276.233 186.111C272.397 186.111 271.512 186.701 269.742 186.996C269.742 186.996 272.826 187.186 274.758 187.586C276.4 187.927 278.888 188.767 278.888 188.767C280.237 188.467 277.615 186.111 276.233 186.111Z" fill="#E3AC88"/>
<path d="M111.912 313.264C111.608 310.053 113.295 281.128 113.385 284.352C114.655 330.08 117.221 341.586 117.221 341.586L113.385 345.126C113.385 345.126 113.976 335.096 111.912 313.264Z" fill="#0C3676"/>
<path d="M356.943 435.311C342.783 405.514 302.66 423.215 302.66 423.215L283.312 427.065H230.504L236.109 476.923C236.109 476.923 378.344 480.34 356.943 435.311Z" fill="#DFAB93"/>
<path d="M-33.832 333.685C-33.832 333.685 241.421 305.658 255.582 314.804C269.743 323.949 286.264 462.903 278.888 472.344C271.513 481.784 -3.44506 490.34 -3.44506 490.34L-33.832 333.685Z" fill="#270143"/>
<g style="mix-blend-mode:soft-light">
<path d="M133.95 397.823L154.761 395.629L157.87 425.118C154.725 426.529 151.522 427.661 148.261 428.516C145.001 429.371 141.264 430.021 137.051 430.465C130.816 431.123 125.434 430.441 120.905 428.419C116.369 426.342 112.735 423.119 110.003 418.75C107.32 414.319 105.645 408.929 104.975 402.582C104.312 396.291 104.973 390.712 106.959 385.846C108.945 380.979 112.107 377.039 116.447 374.026C120.837 370.951 126.317 369.066 132.889 368.373C136.259 368.018 139.466 367.992 142.508 368.296C145.606 368.594 148.506 369.169 151.209 370.02L149.037 376.894C146.802 376.164 144.301 375.604 141.533 375.214C138.822 374.819 136.034 374.772 133.17 375.074C125.98 375.832 120.591 378.587 117.003 383.338C113.471 388.084 112.102 394.22 112.895 401.747C113.399 406.521 114.604 410.682 116.512 414.23C118.47 417.715 121.215 420.322 124.748 422.051C128.275 423.723 132.735 424.275 138.128 423.707C140.768 423.428 143 423.051 144.824 422.575C146.648 422.098 148.297 421.584 149.772 421.031L147.889 403.169L134.661 404.563L133.95 397.823Z" fill="white"/>
</g>
<path d="M294.528 299.399C294.026 296.213 296.208 280.243 296.297 283.468C297.093 312.146 295.782 338.793 296.297 360.763C297.127 396.201 303.083 422.127 303.083 422.127L299.542 420.062C299.542 420.062 295.08 390.531 294.527 360.763C294.093 337.362 296.739 313.423 294.528 299.399Z" fill="#0C3676"/>
</g>
<defs>
<radialGradient id="paint0_radial" cx="0" cy="0" r="1" gradientUnits="userSpaceOnUse" gradientTransform="translate(230.192 160.49) rotate(90.7092) scale(279.264 662.11)">
<stop offset="0.317831" stop-color="#2B014B"/>
<stop offset="0.545967" stop-color="#490082"/>
</radialGradient>
<radialGradient id="paint1_radial" cx="0" cy="0" r="1" gradientUnits="userSpaceOnUse" gradientTransform="translate(171.794 162.216) rotate(28.679) scale(39.3439 31.2733)">
<stop stop-color="#48027E"/>
<stop offset="1" stop-color="#210139"/>
</radialGradient>
<radialGradient id="paint2_radial" cx="0" cy="0" r="1" gradientUnits="userSpaceOnUse" gradientTransform="translate(218.702 143.924) rotate(-122.125) scale(44.9379 44.2474)">
<stop stop-color="#1D0033"/>
<stop offset="1" stop-color="#3E006F"/>
</radialGradient>
</defs>
</svg>
